X: 1
T: Itzikel
O: Kammen 1-10
R: freylach, bulgur
S: Marianne Cygnel
B: Kammen 1-10
D:
Z: John Chambers <jc:trillian.mit.edu> http://trillian.mit.edu/~jc/music/
N:
M: 2/4
L: 1/16
K: Dm
|: A,2- \
| "Dm"A,DFD DFAF | "Gm"G2GF "Dm"GAF2 | "F"FAcA FAcA | "C7"G2GF "F"GAF2 |
| "A7"FGGF FEE_E | "Dm"D4 DGF2 |  "A7"FGGF FEE_E | "Dm"D6 :|
|: A2 \
| "Dm"d6 "Gm"cB | "Dm"A4- "(A)"A2A2 | "Dm"dAdA "Gm"d2{ed}cB | "Dm"A4- "(A)"A2A2 |
| "Dm"d6 c2 | "C"e6 d2 | "Dm"dAdA "Gm"d2{ed}cB | "Dm"A4- "(A)"A2A2 |
| "F"FGAB ABAB | ABAB "Gm"A2G2 | "Gm"GDDG GDDG | "(C7)"GDDG "F"G2{AG}F2 |
| "A7"FGGF FEE_E | "Dm"D4 DGF2 | "A7"FGGF FEE_E |1 "Dm"D2D2 F2 :|2 "Dm"D2z2 d2 |]

%%sep 1 1 500
%%sep 1 1 500

